common/icons/svgs/ticket_not_yet_on_sale.svg

<svg xmlns="http://www.w3.org/2000/svg" width="24" height="24" viewBox="0 0 24 24">
  <g fill="none" fill-rule="evenodd" transform="translate(-24 -360)">
    <rect width="504" height="450" fill="#FFF"/>
    <g transform="translate(24 360)">
      <rect width="24" height="24"/>
      <g fill="#000" fill-rule="nonzero">
        <path d="M15.9784615,12 C15.7528709,11.7365759 15.3986599,11.6218321 15.0614594,11.7029445 C14.7242589,11.7840569 14.46098,12.0473358 14.3798676,12.3845363 C14.2987551,12.7217369 14.4134989,13.0759478 14.6769231,13.3015385 L15.1661538,13.7907692 C15.5323941,14.1044094 16.0783331,14.0833221 16.4192891,13.742366 C16.7602452,13.40141 16.7813324,12.855471 16.4676923,12.4892308 L15.9784615,12 Z"/>
        <path d="M23.52,11.4092308 L21.12,9.00923077 C20.8787087,8.76743652 20.5236127,8.67866252 20.1969231,8.77846154 C19.2805554,9.05517257 18.2862718,8.80469461 17.6103707,8.12686242 C16.9344697,7.44903022 16.6868295,6.45403602 16.9661538,5.53846154 C17.0659529,5.21177191 16.9771789,4.85667593 16.7353846,4.61538462 L14.3353846,2.21538462 C13.97535,1.85748591 13.3938807,1.85748591 13.0338462,2.21538462 L11.7230769,3.53538462 C10.4696105,1.28437256 7.93233971,0.0691175779 5.39272538,0.50339 C2.85311106,0.937662423 0.863816269,2.92695722 0.429543847,5.46657154 C-0.00472857596,8.00618586 1.21052641,10.5434566 3.46153846,11.7969231 L2.10461538,13.1538462 C1.74671668,13.5138807 1.74671668,14.09535 2.10461538,14.4553846 L4.50461538,16.8553846 C4.7459067,17.0971789 5.10100268,17.1859529 5.42769231,17.0861538 C6.34000033,16.813112 7.32856904,17.0619396 8.00290296,17.7343468 C8.67723687,18.4067541 8.9288919,19.3946068 8.65846154,20.3076923 C8.55866252,20.6343819 8.64743652,20.9894779 8.88923077,21.2307692 L11.2892308,23.6307692 C11.6492653,23.9886679 12.2307347,23.9886679 12.5907692,23.6307692 L23.52,12.7107692 C23.8778987,12.3507347 23.8778987,11.7692653 23.52,11.4092308 L23.52,11.4092308 Z M2.19692308,6.46153846 C2.21732032,4.13638748 4.11158427,2.26415081 6.43681478,2.27094997 C8.76204528,2.27774913 10.6453278,4.16103164 10.652127,6.48626215 C10.6589261,8.81149265 8.78668944,10.7057566 6.46153846,10.7261538 C5.32823018,10.7335856 4.23918522,10.2866661 3.43779802,9.4852789 C2.63641082,8.6838917 2.18949131,7.59484674 2.19692308,6.46153846 L2.19692308,6.46153846 Z M18.8123077,14.7692308 L18.6738462,14.7692308 C18.4482555,14.5058066 18.0940446,14.3910628 17.756844,14.4721753 C17.4196435,14.5532877 17.1563646,14.8165666 17.0752522,15.1537671 C16.9941397,15.4909676 17.1088835,15.8451786 17.3723077,16.0707692 L17.4830769,16.1815385 L11.9446154,21.72 L10.5507692,20.3076923 C10.7844043,18.8975005 10.323361,17.4612135 9.31261222,16.4504647 C8.30186341,15.4397159 6.86557643,14.9786726 5.45538462,15.2123077 L4.07076923,13.8461538 L5.4,12.5169231 C7.75283537,12.9361603 10.1304607,11.9213202 11.4553846,9.93230769 C11.4851896,10.1082369 11.5653464,10.2717567 11.6861538,10.4030769 L12.1753846,10.8923077 C12.5416249,11.2059478 13.0875639,11.1848606 13.4285199,10.8439045 C13.7694759,10.5029485 13.7905632,9.95700949 13.4769231,9.59076923 L12.9876923,9.10153846 C12.7404035,8.82458641 12.3512492,8.72275165 12,8.84307692 C12.4523409,7.77777539 12.5838743,6.6035997 12.3784615,5.46461538 L13.6615385,4.18153846 L15.0738462,5.53846154 C14.8402111,6.94865335 15.3012544,8.38494033 16.3120032,9.39568914 C17.322752,10.4064379 18.759039,10.8674812 20.1692308,10.6338462 L21.5538462,12.0184615 L18.8123077,14.7692308 Z"/>
        <path d="M9.23076923,6.77538462 C9.23076923,6.26558331 8.81749362,5.85230769 8.30769231,5.85230769 L7.07076923,5.85230769 L7.07076923,4.42153846 C7.07076923,3.91173715 6.65749362,3.49846154 6.14769231,3.49846154 C5.637891,3.49846154 5.22461538,3.91173715 5.22461538,4.42153846 L5.22461538,6.77538462 C5.22461538,7.28518592 5.637891,7.69846154 6.14769231,7.69846154 L8.30769231,7.69846154 C8.81749362,7.69846154 9.23076923,7.28518592 9.23076923,6.77538462 Z"/>
      </g>
    </g>
  </g>
</svg>

<svg xmlns="http://www.w3.org/2000/svg" viewbox="0 0 24 24"><g class="icon__shape" fill-rule="nonzero"><path d="M15.978 12a.923.923 0 1 0-1.301 1.302l.49.489a.923.923 0 0 0 1.3-1.302L15.979 12z"/><path d="M23.52 11.41l-2.4-2.4a.923.923 0 0 0-.923-.232 2.594 2.594 0 0 1-3.23-3.24.923.923 0 0 0-.232-.923l-2.4-2.4a.923.923 0 0 0-1.301 0l-1.31 1.32a6.074 6.074 0 1 0-8.262 8.262l-1.357 1.357a.923.923 0 0 0 0 1.301l2.4 2.4c.24.242.596.331.923.231a2.594 2.594 0 0 1 3.23 3.222.923.923 0 0 0 .231.923l2.4 2.4a.923.923 0 0 0 1.302 0L23.52 12.71a.923.923 0 0 0 0-1.302zM2.197 6.461a4.228 4.228 0 1 1 4.265 4.264 4.237 4.237 0 0 1-4.265-4.264zm16.615 8.307h-.138a.923.923 0 1 0-1.302 1.302l.111.11-5.538 5.539-1.394-1.412a4.43 4.43 0 0 0-5.096-5.096l-1.384-1.366 1.329-1.33a6.01 6.01 0 0 0 6.055-2.584c.03.176.11.34.231.471l.49.49a.923.923 0 0 0 1.3-1.302l-.488-.49A.923.923 0 0 0 12 8.844a5.945 5.945 0 0 0 .378-3.378l1.284-1.283 1.412 1.356a4.43 4.43 0 0 0 5.095 5.096l1.385 1.384-2.742 2.751z"/><path d="M9.23 6.775a.923.923 0 0 0-.922-.923H7.07v-1.43a.923.923 0 1 0-1.846 0v2.353c0 .51.413.923.923.923h2.16c.51 0 .923-.413.923-.923z"/></g></svg>
